X: 10
T: Drowsy Maggie
R: reel
M: 4/4
L: 1/8
K: Edor
d2fd cdec|defd faaf|d2fd cdec|BABc dAFA|d2fd cdec|defd faa2|bgaf gfed|BABc dAFD||


Tune 27	Setting 12409

